!!!!SEGMENT: pl-kk--i-545--001_anonim--1-o-salutaris-hostia.krn
!!!cenid: 18xx:4478
!!!COM: Anonim
!!!COM-rismID: pe30004985
!!!CDT:
!!!CNT:
!!!OTL: 1. O salutaris hostia
!!!PDT:
!!!AGN: Sacred
!!!YEC: Copyright 2022 Narodowy Instytut Fryderyka Chopina (https://polishscores.org)
!!!YEM: License CC-BY-4.0 (https://creativecommons.org/licenses/by/4.0)
!!!SMS-siglum: PL-Kk
!!!SMS-shelfmark: I.545
!!!SMS-variant:
!!!SMS-altvar:
!!!SMS-shelfwork: 001 W
!!!NIFC-rismSourceID: 1001210831
!!!NIFC-rismChildID: 1001210832
!!!NIFC-islandoraID: pl-kk:17058
!!!URL-pdf-islandora: https://repozytorium.nifc.pl/islandora/object/pl-kk%3A17058/datastream/PDF/view
!!!URL-scan: https://polish.musicsources.pl/pl/lokalizacje/galeria/rekopisy/7172/2 @EN{Scan on Polish Music Sources Website} @PL{Skany w portalu Dziedzictwo Muzyki Polskiej w otwartym dostępie}
!!!IIIF:
!!!ONB-nifc: UWAGA: 1-2r.
!!!OMD: Adagio
!!!AIN: 1 organ 2 vox
!!!key: E-
**kern	**kern	**dynam	**kern	**text	**dynam	**kern	**text	**dynam
*part3	*part3	*part3	*part2	*part2	*part2	*part1	*part1	*part1
*staff4	*staff3	*	*staff2	*staff2	*	*staff1	*staff1	*
*I"[Organo]	*I"[Organo]	*	*I"[Voce]	*	*	*I"[Voce]	*	*
*Iorgan	*Iorgan	*	*Ivox	*	*	*Ivox	*	*
*ICklav	*ICklav	*	*ICvox	*	*	*ICvox	*	*
*clefF4	*clefG2	*	*clefF4	*	*	*clefG2	*	*
*k[b-e-a-]	*k[b-e-a-]	*	*k[b-e-a-]	*	*	*k[b-e-a-]	*	*
*E-:	*E-:	*	*E-:	*	*	*E-:	*	*
*M4/4	*M4/4	*	*M4/4	*	*	*M4/4	*	*
*met(c)	*met(c)	*	*met(c)	*	*	*met(c)	*	*
=1	=1	=1	=1	=1	=1	=1	=1	=1
*^	*^	*	*^	*	*	*^	*	*
!	!	!	!	!	!	!	!	!LO:DY:a:rj	!	!	!	!LO:DY:a:rj
[2G/	1E-	4b-/	[2e-\	.	4G/	4E-\	.	pp	4b-/	4b-\	O	pp
.	.	8cc/L	.	.	8G/	8E-\	.	.	8cc/	8b-\	sa-	.
.	.	8dd/J	.	.	8G/	8E-\	.	.	8dd/	8b-\	-lu-	.
2G/]	.	4ee-/	2e-\]	.	4G/	4E-\	.	.	4ee-/	4b-\	-ta-	.
.	.	4b-/	.	.	4G/	4E-\	.	.	4b-/	4b-\	-ris	.
*v	*v	*	*	*	*	*	*	*	*	*	*	*
=2	=2	=2	=2	=2	=2	=2	=2	=2	=2	=2	=2
[1E- [<1A- [1c	4..dd/	1f	.	4..F/	4..E-\	.	.	4..dd/	4..a-\	ho-	.
.	16cc/	.	.	16F/	16E-\	.	.	16cc/	16a-\	-sti-	.
.	2cc/	.	.	2F/	2E-/	.	.	2cc/	2a-\	-a	.
=3	=3	=3	=3	=3	=3	=3	=3	=3	=3	=3	=3
1E-] 1A-] 1c]	4cc/	1f	.	4A-/	4E-\	.	.	4cc/	4cc\	o	.
.	8dd/L	.	.	8A-/	8E-\	.	.	8dd/	8cc\	sa-	.
.	8ee-/J	.	.	8A-/	8E-\	.	.	8ee-/	8cc\	-lu-	.
.	4ff/	.	.	4A-/	4E-\	.	.	4ff/	4cc\	-ta-	.
.	4cc/	.	.	4A-/	4E-\	.	.	4cc/	4cc\	-ris	.
*	*v	*v	*	*	*	*	*	*	*	*	*
=4	=4	=4	=4	=4	=4	=4	=4	=4	=4	=4
*^	*	*	*	*	*	*	*	*	*	*
2.F/ 2.A- 2.B-	2.BB-\	4..e-/ 4..a- 4..b- 4..ee-	.	4..A-/	4..F\	.	.	4..ee-/	4..b-\	ho-	.
.	.	16d/ 16a- 16b- 16dd	.	16A-/	16F\	.	.	16dd/	16b-\	-sti-	.
.	.	8d/ 8a- 8b- 8dd	.	8A-/	8F\	.	.	8dd/	8b-\	-a	.
.	.	8r	.	8r	8ryy	.	.	8r	8rcc	.	.
4F/ 4A- 4B-	4D\	4f/ 4a- 4b-	.	4F/	4D\	.	.	4b-/	4a-\	Quae	.
=5	=5	=5	=5	=5	=5	=5	=5	=5	=5	=5	=5
*	*	*^	*	*	*	*	*	*	*	*	*
4B-/	4E-\	4b-/	4g\	.	4G/	4E-\	.	.	4b-/	4g\	coe-	.
!LO:SIC:v:s=4An/	!	!	!	!	!	!	!	!	!	!	!	!
4A-/	4C\ 4E-	4ee-/ 4gg	4an\	.	4An/	4C\	.	.	4gg/	4ee-\	-li	.
4B-/	4D\ 4F	4dd/ 4ff	4b-\	.	4B-/	4D\	.	.	4ff/	4dd\	pan-	.
4c/	4E-\ 4G	4cc/ 4ee-	4g\	.	4G/	4E-\	.	.	4ee-/	4cc\	-dis	.
=6	=6	=6	=6	=6	=6	=6	=6	=6	=6	=6	=6	=6
4..c/	4..F\	4..ee-/	4..an\	.	4..An/	4..F\	.	.	4..ee-/	4..cc\	os-	.
16B-/	16G\	16dd/	16b-\	.	16B-/	16G\	.	.	16dd/	16b-\	-ti-	.
4B-/	4G\	4dd/	4b-\	.	4B-/	4G\	.	.	4dd/	4b-\	-um,	.
!	!	!	!	!	!	!	!	!	!	!	!	!LO:HP:a:t=dim.
4ryy	4E-\	8dd/L 8ff	4g\	.	4G/	4C\	.	.	8ff/L	8dd\L	Quae	>
.	.	8cc/J 8ee-	.	.	.	.	.	.	8ee-/J	8cc\J	.	.
!!LO:LB:g=original
=7	=7	=7	=7	=7	=7	=7	=7	=7	=7	=7	=7	=7
*	*	*	*Xstem	*	*	*	*	*	*	*	*	*
4F/	4F\	4b-/ 4dd	4e-\	.	4F/	4F\	.	.	4dd/	4b-\	coe-	.
4B-/	4F\	4f/ 4b-	4d\	.	4D/	4F\	.	.	4b-/	4b-\	-li	.
4d/	4F\	4b-/ 4dd	4f/	.	4F/	4F\	.	.	4dd/	4b-\	pan-	.
*	*	*	*stem	*	*	*	*	*	*	*	*	*
!	!	!	!LO:SIC:v:s=8en\L	!	!	!	!	!	!	!	!	!
8c/L	4F\	8an/L 8cc	8e-\L	.	4En/	4F\	.	.	8cc/L	4an\	-dis	.
8d/J	.	8dd/J	8f\J	.	.	.	.	.	8dd/J	.	.	.
=8	=8	=8	=8	=8	=8	=8	=8	=8	=8	=8	=8	=8
!	!	!LO:SIC:v:s=4..an	!	!	!	!	!	!	!	!	!	!
4..c/	4..F\	4..a-/ 4..cc	4..e-\	.	4..E-/	4..FF\ 4..F	.	.	4..cc/	4..an\	os-	.
16B-/	16BB-\	16d/ 16b-	16ryy	.	16D/	16BB-\	.	.	16b-/	16b-\	-ti-	.
4B-/	4BB-\	4b-/	4d/	.	4D/	4BB-\	.	.	4b-/	4b-\	-um	.
4r	4ryy	4r	4ryy	.	4r	4ryy	.	.	4r	4ryy	.	.
=9:|!|:	=9:|!|:	=9:|!|:	=9:|!|:	=9:|!|:	=9:|!|:	=9:|!|:	=9:|!|:	=9:|!|:	=9:|!|:	=9:|!|:	=9:|!|:	=9:|!|:
!	!	!	!	!	!	!	!	!	!	!	!	!LO:HP:a
2G/ 2B-	2Dn\	2g/ 2b- 2cc	2c/	.	4G/	4En\	.	.	4cc/	4b-\	Bel-	<
.	.	.	.	.	8.G/	8.E\	.	.	8.cc/	8.b-\	-la	.
.	.	.	.	.	16G/	16E\	.	.	16cc/	16b-\	pre-	.
4A-/	4F\	4f/ 4a- 4dd-X	4d-X\	.	4F/	4F\	.	.	4dd-X/	4a-X\	-munt	.
4A-/	4F\	4f/ 4a- 4cc	4c\	.	4F/	4F\	.	.	4cc/	4a-\	ho-	.
*	*	*v	*v	*	*	*	*	*	*	*	*	*
=10	=10	=10	=10	=10	=10	=10	=10	=10	=10	=10	=10
4..A-/	4..C\	4..c/ 4..en 4..cc	.	4..En/	4..C\	.	.	4..cc/	4..a-\	-sti-	.
16G/	16C\	16c/ 16e 16b-	.	16E/	16C\	.	.	16b-/	16g\	-li-	.
4F/	4FF\	4c/ 4f 4a-	.	4F/	4F\	.	.	4a-/	4f\	-a	.
4r	4ryy	4r	.	4r	4r	.	.	4r	4ryy	.	.
=11	=11	=11	=11	=11	=11	=11	=11	=11	=11	=11	=11
!	!LO:SIC:v:n=2:s=2An	!LO:SIC:v:n=2:s=2an	!	!	!	!	!	!	!	!	!
2c\	2F#X\ 2A-	2d/ 2a- 2ccn 2dd	.	4An/	4F#X\	.	.	4ddn/	4cc\	Bel-	.
.	.	.	.	8.A/	8.F#\	.	.	8.dd/	8.cc\	-la	.
.	.	.	.	16A/	16F#\	.	.	16dd/	16cc\	pre-	.
4B-/	4G\	4e-/ 4g 4b- 4ee-	.	4G/	4G\	.	.	4ee-/	4b-\	-munt	.
4B-/	4G\	4d/ 4g 4b- 4dd	.	4G/	4G\	.	.	4dd/	4b-\	ho-	.
=12	=12	=12	=12	=12	=12	=12	=12	=12	=12	=12	=12
*	*	*^	*	*	*	*	*	*	*	*	*
4..B-/	4..D\	4..dd/	4d\ 4f#X	.	4..F#X/	4..C\	.	.	4..dd/	4..b-\	-sti-	.
.	.	.	4ryy	.	.	.	.	.	.	.	.	.
!	!	!	!	!	!	!	!	!	!	!LO:SIC:v:s=16an\	!	!
16An/	16D\	16d/ 16f# 16cc	.	.	16F#/	16D\	.	.	16cc/	16a-\	-li-	.
8G/	8GG\	8e-/ 8g 8b-	2ryy	.	8G/	8G\	.	.	8b-/	8g\	-a	.
8ryy	8ryy	8r	.	.	8r	8ryy	.	.	8ra	8ra	.	.
!	!	!	!	!	!	!	!	!	!	!	!	!LO:DY:a
4B-\	4ryy	4b-/	.	.	4B-/	4B-\	.	.	4b-/	4b-\	Da-	f
!!LO:PB:g=original
=13	=13	=13	=13	=13	=13	=13	=13	=13	=13	=13	=13	=13
2A-/	2BB-\	4B-/ 4d 4g	2.ryy	.	4A-X/	4BB-\	.	.	4gg/	4dd\	-ro-	.
.	.	[4B-/ [>4d [4f	.	.	[4A-/	[4BB-\	.	.	[4ff/	[4dd\	-bur	.
8ryy	4ryy	8B-/] 8d] 8f]	.	.	8A-/]	8BB-\]	.	.	8ff/]	8dd\]	.	.
8r	.	8r	.	.	8r	8ryy	.	.	8r	8ryy	.	.
8B-/L	8D\L	8b-/L	4a-\	.	8A-/	8D\	.	.	8b-/	8b-\	fer	.
8c/J	8E-\J	8cc/J	.	.	8A-/	8E-\	.	.	8cc/	8b-\	au-	.
=14	=14	=14	=14	=14	=14	=14	=14	=14	=14	=14	=14	=14
4..B-/ 4..d	4..F\	4..dd/	4..a-\	.	4..A-/	4..F\	.	.	4..dd/	4..b-\	-xi-	.
16B-/ 16e-	16G\	16g/ 16ee-	16ryy	.	16G/	16E-\	.	.	16ee-/	16b-\	-li-	.
8G\ 8B- 8e-	4ryy	8g/ 8ee-	4ryy	.	8G/	8E-\	.	.	8ee-/	8b-\	-um	.
8r	.	8r	.	.	8r	8ryy	.	.	8r	8ryy	.	.
4c\	4ryy	4cc/	4cc\	.	4c/	4c\	.	.	4cc/	4cc\	Da-	.
*v	*v	*	*	*	*	*	*	*	*	*	*	*
=15	=15	=15	=15	=15	=15	=15	=15	=15	=15	=15	=15
!	!LO:SIC:v:n=2:s=4en	!	!	!	!	!	!	!	!	!	!
[2C\ [2B-	4cn/ 4e- 4a-	2.ryy	.	4B-/	4C\	.	.	4aa-\	4een\	-ro-	.
!	!LO:SIC:v:n=2:s=[>4en	!	!	!	!	!	!	!	!	!	!
.	[4c/ [>4e- [4g	.	.	[4B-/	[4C\	.	.	[4gg/	[4ee\	-bur	.
!	!LO:SIC:v:n=2:s=8en]	!	!	!	!	!	!	!	!	!	!
8C\] 8B-]	8c/] 8e-] 8g]	.	.	8B-/]	8C\]	.	.	8gg/]	8ee\]	.	.
8ryy	8r	.	.	8r	8ryy	.	.	8r	8ryy	.	.
8En\L 8c	8cc/L	8b-\L	.	8B-/	8En\	.	.	8cc/	8cc\	fer	.
8F\J 8d	8dd/J	8b-\J	.	8B-/	8F\	.	.	8dd/	8cc\	au-	.
*	*v	*v	*	*	*	*	*	*	*	*	*
=16	=16	=16	=16	=16	=16	=16	=16	=16	=16	=16
!LO:SIC:v:n=3:s=4..en	!	!	!	!	!	!	!	!	!	!
4..G\ 4..c 4..e-	4..b-\ 4..een	.	4..B-/	4..G\	.	.	4..een/	4..cc\	-xi-	.
16A-\ 16c 16f	16a-\ 16ff	.	16A-/	16A-\	.	.	16ff/	16cc\	-li-	.
4A-\ 4c 4f	4a-\ 4ff	.	4A-/	4A-\	.	.	4ff/	4cc\	-um	.
4r	4r	.	4r	4ryy	.	.	4r	4ryy	.	.
=17	=17	=17	=17	=17	=17	=17	=17	=17	=17	=17
4c\	4cc\	.	4c/	4c\	.	.	4cc/	4cc\	Bel-	.
8.B-\L	8.b-\L	.	8.B-/	8.B-\	.	.	8.b-/	8.b-\	-la	.
16A-\Jk	16a-\Jk	.	16A-/	16A-\	.	.	16a-/	16a-\	pre-	.
4G\	4g/	.	4G/	4G\	.	.	4g/	4g\	-munt	.
4F\	4f/	.	4F/	4F\	.	.	4f/	4f\	hos-	.
=18	=18	=18	=18	=18	=18	=18	=18	=18	=18	=18
*^	*	*	*	*	*	*	*	*	*	*
!LO:SIC:v:n=3:s=2.An	!	!	!	!	!	!	!	!	!	!	!
!LO:N:vis=2..	!	!LO:N:vis=2..	!	!	!	!	!	!	!	!	!
2.E-/ 2.F 2.A-	2.C\	2.f\ 2.an 2.ee- 2.ff	.	4..An/	4..C\	.	.	4..ff/	4..ee-\	-ti-	.
.	.	.	.	16A/	16C\	.	.	16ff/	16ee-\	-li-	.
.	.	.	.	8A/	8C\	.	.	8ff/	8ee-\	-a	.
.	.	.	.	8r	8ryy	.	.	8r	8ryy	.	.
4r	4ryy	4r	.	4A/	4C\ 4A	.	.	4ff/	4ee-\	Da-	.
!!LO:LB:g=original
=19	=19	=19	=19	=19	=19	=19	=19	=19	=19	=19	=19
*	*	*^	*	*	*	*	*	*	*	*	*
2.E-/ 2.G-X 2.An	2.BBn\	2.ee-\ 2.gg-X	2.g-X\ 2.an	.	2An/	2C-X\	.	.	2gg-X/	2ee-\	-ro-	.
.	.	.	.	.	8A/	8C-\	.	.	8gg-/	8ee-\	-bur	.
.	.	.	.	.	8r	8ryy	.	.	8r	8ryy	.	.
4r	4ryy	4r	4r	.	4A/	4C-\	.	.	4gg-/	4ee-\	Da-	.
*	*	*v	*v	*	*	*	*	*	*	*	*	*
=20	=20	=20	=20	=20	=20	=20	=20	=20	=20	=20	=20
2D/ 2F 2B-	[2BB-\	2g\ 2b- 2ee- 2ggn	.	2B-/	2BB-\	.	.	2ggn/	2ee-\	-ro-	.
2G/ 2B-	2BB-\]	2e-/ 2b- 2ee-	.	2G/	2BB-\	.	.	2ee-/	2b-\	-bur	.
=21	=21	=21	=21	=21	=21	=21	=21	=21	=21	=21	=21
4F/	2BB-\	4B-/ 4d 4b-	.	4F/	4BB-\	.	.	4dd/	4b-\	fer	.
4G/	.	4B-/ 4e-	.	4G/	4BB-\	.	.	4ee-/	4b-\	au-	.
[4A-/	[4BB-\	4B-/ 4d 4g	.	[4A-/	[4BB-\	.	.	(4gg/	4dd\	-xi-	.
8.A-/]	8.BB-\L]	8.B-/ 8.d 8.f	.	8.A-/]	8.BB-\]	.	.	8.ff/)	8.dd\	.	.
16G/	16E-\Jk	16B-/ 16d	.	16G/	16BB-\	.	.	16ee-/	16b-\	-li-	.
*v	*v	*	*	*	*	*	*	*	*	*	*
=22	=22	=22	=22	=22	=22	=22	=22	=22	=22	=22
[2E-\ 2G	2B-/ 2e-	.	[4G/	4E-\	.	.	4ee-/	4b-\	-um	.
.	.	.	8G/]	8E-\	.	.	8ee-/	8b-\	.	.
.	.	.	8r	8ryy	.	.	8r	8ryy	.	.
!	!	!	!	!	!	!	!	!	!	!LO:DY:a:rj
2E-\]	2e-/ 2b- 2ee-	.	4E-/	4E-\	.	.	4ee-/	4cc\	o	p
.	.	.	8E-/	8E-\	.	.	8ee-/	8cc\	sa-	.
.	.	.	8E-/	8E-\	.	.	8ee-/	8cc\	-lu-	.
=23	=23	=23	=23	=23	=23	=23	=23	=23	=23	=23
*^	*	*	*	*	*	*	*	*	*	*
4F/	1E-	2d/ 2b- 2dd	.	4F/	4E-\	.	.	4dd/	4b-\	-ta-	.
4G/	.	.	.	4G/	4E-\	.	.	4dd/	4b-\	-ris	.
2A-/	.	2c/ 2a- 2cc	.	4..E-/	4..E-\	.	.	4..cc/	4..a-\	hos-	.
.	.	.	.	16F/	16E-\	.	.	16cc/	16a-\	-ti-	.
=24	=24	=24	=24	=24	=24	=24	=24	=24	=24	=24	=24
2G/	2E-\	2B-/ 2g 2b-	.	[4G/	[4E-\	.	.	[4b-/	[4g\	-a	.
.	.	.	.	8G/]	8E-\]	.	.	8b-/]	8g\]	.	.
.	.	.	.	8ryy	8ryy	.	.	8r	8ryy	.	.
!	!	!	!LO:DY:a	!	!	!	!	!	!	!	!LO:DY:a
2E-/	2C\	2G/ 2c	pp	4E-/	4C\	.	.	4cc/	4g\	o	pp
.	.	.	.	8E-/	8C\	.	.	8cc/	8g\	sa-	.
.	.	.	.	8E-/	8C\	.	.	8cc/	8g\	-lu-	.
!!LO:PB:g=original
=25	=25	=25	=25	=25	=25	=25	=25	=25	=25	=25	=25
*	*	*^	*	*	*	*	*	*	*	*	*
2G\	[2BB-\	2e-/	2B-\	.	4G/	4BB-\	.	.	4ee-/	4b-\	-ta-	.
!	!	!	!	!	!	!LO:N:xstem	!	!	!	!	!	!
.	.	.	.	.	4G/	4BB-\	.	.	4ee-/	4b-\	-ris	.
4..F/	4..BB-\]	4..d/	4..B-/	.	4..F/	4..AA-\	.	.	4..dd/	4..b-\	ho-	.
16EE-/ 16E-	16ryy	16B-/ 16e-	16G\	.	16G/	16E-\	.	.	16ee-/	16b-\	-sti-	.
*v	*v	*	*	*	*	*	*	*	*	*	*	*
*	*v	*v	*	*	*	*	*	*	*	*	*
=26	=26	=26	=26	=26	=26	=26	=26	=26	=26	=26
2EE-/ 2E-	[2G/ [2B- [2e-	.	[2G\	[2E-\	.	.	[2ee-;\	[2b-\	-a	.
4EE-/ 4E-	4G/] 4B-] 4e-]	.	4G/]	4E-\]	.	.	4ee-/]	4b-\]	.	.
4r	4ryy	.	4r	4ryy	.	.	4ryy	4r	.	.
*	*	*	*v	*v	*	*	*	*	*	*
*	*	*	*	*	*	*v	*v	*	*
==	==	==	==	==	==	==	==	==
*-	*-	*-	*-	*-	*-	*-	*-	*-
!!!system-decoration: (s1,s2)(s3,s4)
!!!RDF**kern: < = below
!!!RDF**kern: > = above
!!!ENC: Andrzej Gręziak
!!!END: 2023-10-27
!!!EED: Marta Chmielewska
!!!EEV: 2024-04-22
